X:1
T: Emma's Commencement
N:
C:
S:Tune is Murray's Passage
A:
O:
R:
M:3/4
K:G
I:speed 144
%W:         A1
% voice 1 (1 lines, 17 notes)
K:G
M:3/4
L:1/16
G4 d2 c2 B2 A2 |c4 B6 G2 |E2 G2 e2 d c B2 c2 |d8 d4 |
%W:
% voice 1 (1 lines, 17 notes)
G4 d2 c2 B2 A2 |c4 B6 G2 |E2 G2 e2 d c B2 c2 |d8 d4 |
%W:         A2
% voice 1 (1 lines, 19 notes)
G2 A B A2 G2 F2 E2 |F2 D2 D8 |E F G2 F2 E2 D2 C2 |D8 d4 |
%W:
% voice 1 (1 lines, 19 notes)
G2 A B A2 G2 F2 E2 |F2 D2 D8 |E F G2 F2 E2 D2 C2 |D8 G4 |
%W:         B1
% voice 1 (1 lines, 17 notes)
G4 d2 c2 B2 A2 |c4 B6 G2 |E2 G2 e2 d c B2 c2 |d8 d4 |
%W:
% voice 1 (1 lines, 17 notes)
G4 d2 c2 B2 A2 |c4 B6 G2 |E2 G2 e2 d c B2 c2 |d8 d4 |
%W:         B2
% voice 1 (1 lines, 19 notes)
G2 A B A2 G2 F2 E2 |F2 D2 D8 |E F G2 F2 E2 D2 C2 |D8 d4 |
%W:                                                                                 For repeats            End of dance
% voice 1 (1 lines, 20 notes)
G2 A B A2 G2 F2 E2 |F2 D2 D8 |E F G2 F2 E2 D2 C2 |D8 G4 ||G12 ||
